X:9034
T:La Procesión
C:(Versión de Ignacio Noriega)
Z:Métodu de Gaita
P:ABCB
M:2/4
L:1/4
Q:2/4=120
K:C
P:A
|:c3/2 B/2|c d|_e3/2 d/2|c d/2 _e/2|d3/2 c/2|
B d|1 c2|G2:|2 c2-||c G|F3/2 E/2|
F G|A/2_B/2A/2G/2|F3/2 C/2|F/2C/2 F/2C/2|F A|
G3/2 D/2|E2|E D|E F|G/2A/2 G|F D/2C/2|
B,3/2 C/2|D ({f}E)|D3/2 B,/2|C2-|C2-|C G/2G/2|
C3/2 B,/2|C D|({f}E3/2) D/2|C ({f}E)|D3/2 C/2|B, c/2d/2|
c2|G2|c3/2 B/2|c d|_e3/2 d/2|c d/2_e/2|
d3/2 c/2|B d|c2-|c G|F E|F G|
A/2_B/2A/2G/2|F3/2 C/2|F/2C/2 F/2C/2|F A|G3/2 D/2|
E E|E G|G F|D C|B,3/2 C/2|D ({f}_E)|
D3/2 B,/2|C2|
P:B
|F F|F G|A/2_B/2A/2G/2|F3/2 C/2|
F/2C/2 F/2C/2|F A|G3/2 D/2|E2|E E|E G|
G F|D C|B,3/2 C/2|D _E|D3/2 B,/2|C3/2 G/2|
P:C
|C3/2 B,/2|CD|({F/2} _E3/2) D/2|Cc|c3/2B/2|cd|
c2|G2|c3/2B/2|cd|_e3/2d/2|c d/2_e/2|
d3/2c/2|Bd|c2-|c G|FE|FG|
A/2_B/2A/2G/2|F3/2 C/2|F/2C/2F/2C/2|FA|G3/2D/2|E2|
EE|EG|FF|ED/2C/2|B,3/2 C/2|D ({F/2}E)|
D3/2B,/2|C2|FF|FG|A/2_B/2A/2G/2|F3/2 C/2|
F/2C/2F/2C/2|FA|G3/2D/2|E2|EE|EG|
GF|DC|B,3/2 C/2|D ({F/2}E)|D3/2B,/2|C2|
c3/2 B/2|c d|_e3/2 d/2|c d/2_e/2|d3/2 c/2|Bd|
c2|G2|c3/2 B/2|cd|_e3/2 d/2|c d/2_e/2|
d3/2 c/2|Bd|c2-|cG|F2-|FG|
A/2_B/2A/2G/2|F3/2 C/2|F2-|FA|G3/2D/2|E2|
EE|EA|GG|FD/2C/2|B,3/2C/2|D_E|
D3/2 B,/2|C2|


